public/media/icons-technologies/AXIOS.svg

<svg width="140" height="140" viewBox="0 0 140 140" fill="none" xmlns="http://www.w3.org/2000/svg">
<path d="M65.0491 82.2577H71.638V55.9939H65.0491V82.2577Z" fill="#222222"/>
<path d="M87.9816 76.7362C92.1595 76.7362 95.2331 73.1472 95.2331 69.1166C95.2331 65.0859 92.1411 61.5338 87.9816 61.5338C83.8037 61.5338 80.7117 65.0859 80.7117 69.1166C80.7117 73.1472 83.8037 76.7362 87.9816 76.7362ZM88.0368 55.1472C95.9325 55.1472 102.282 61.2025 102.282 69.0614C102.282 76.9571 95.8773 83.1411 87.9632 83.1411C80.0491 83.1411 73.6442 77.0491 73.6442 69.1718C73.6442 61.3129 80.1411 55.1472 88.0368 55.1472ZM103.037 74.3252L109.074 72.908C109.515 76.0736 111.834 77.2147 114.264 77.2147C116.693 77.2147 117.577 75.7976 117.577 74.6933C117.577 73.8098 117.061 72.9264 115.294 72.5767L111.613 71.8589C107.215 71.0123 104.086 68.2699 104.086 64.0552C104.086 59.0307 108.706 55.4969 113.933 55.4969C120.669 55.4969 123.429 59.6564 123.908 63.1534L117.982 64.8098C117.669 62.6564 116.325 61.1104 113.896 61.1104C111.798 61.1104 110.785 62.4908 110.785 63.5583C110.785 64.4417 111.209 65.4356 112.773 65.7485L116.62 66.4847C121.644 67.4417 124.405 70.4785 124.405 74.4356C124.405 78.7423 120.669 82.865 114.264 82.865C107.528 82.8098 103.92 79.3313 103.037 74.3252Z" fill="#222222"/>
<path d="M21.0429 82.2577H13.957L25.681 55.9939H32.8037L21.0429 82.2577Z" fill="#0A99E0"/>
<path d="M54.6134 68.8221L63.411 55.9755H55.368L50.6196 63.7607L45.9815 55.9755H37.8098L46.7362 68.8221L41.7668 76.0368L32.822 55.9939H25.6993L37.4601 82.2577H45.0613L50.6196 73.9387L56.1042 82.2577H63.7975L54.6134 68.8221Z" fill="#222222"/>
</svg>

<svg xmlns="http://www.w3.org/2000/svg" fill="none" viewBox="0 0 140 140">
  <path fill="#222" d="M65.05 82.26h6.59V55.99h-6.6v26.27ZM87.98 76.74c4.18 0 7.25-3.6 7.25-7.62 0-4.03-3.09-7.59-7.25-7.59-4.18 0-7.27 3.56-7.27 7.59 0 4.03 3.1 7.62 7.27 7.62Zm.06-21.6c7.9 0 14.24 6.06 14.24 13.92 0 7.9-6.4 14.08-14.32 14.08-7.91 0-14.32-6.1-14.32-13.97 0-7.86 6.5-14.02 14.4-14.02Zm15 19.19 6.03-1.42c.45 3.16 2.76 4.3 5.2 4.3 2.42 0 3.3-1.41 3.3-2.52 0-.88-.5-1.76-2.28-2.11l-3.68-.72c-4.4-.85-7.52-3.59-7.52-7.8 0-5.03 4.62-8.56 9.84-8.56 6.74 0 9.5 4.16 9.98 7.65l-5.93 1.66c-.31-2.15-1.66-3.7-4.08-3.7-2.1 0-3.12 1.38-3.12 2.45 0 .88.43 1.88 2 2.19l3.84.73c5.02.96 7.78 4 7.78 7.96 0 4.3-3.73 8.42-10.14 8.42-6.73-.05-10.34-3.53-11.22-8.53Z"/>
  <path fill="#0A99E0" d="M21.04 82.26h-7.08l11.72-26.27h7.12L21.04 82.26Z"/>
  <path fill="#222" d="m54.61 68.82 8.8-12.84h-8.04l-4.75 7.78-4.64-7.78h-8.17l8.93 12.84-4.97 7.22-8.95-20.05H25.7l11.76 26.27h7.6l5.56-8.32 5.48 8.32h7.7L54.6 68.82Z"/>
</svg>
